frontend/public/svg/files/file-text.svg

<svg width="142" height="175" viewBox="0 0 142 175" fill="none" xmlns="http://www.w3.org/2000/svg">
<g clip-path="url(#clip0)">
<path d="M141.035 101.153C141.151 114.85 141.333 128.548 141.351 142.245C141.359 148.191 140.903 154.138 140.884 160.085C140.859 168.455 134.555 173.653 126.864 173.825C109.353 174.219 91.8362 174.57 74.3238 174.51C58.1548 174.454 41.9854 173.919 25.8204 173.42C21.4479 173.206 17.0913 172.739 12.773 172.019C7.80782 171.284 2.88795 165.407 2.56307 160.008C2.31366 155.868 2.10361 151.72 2.04453 147.573C1.74744 125.676 1.48115 103.779 1.24575 81.8813C1.00728 61.331 0.777121 40.7809 0.555279 20.2306C0.543324 16.1702 1.57479 12.1744 3.55078 8.62737C4.43227 6.85342 5.79326 5.36237 7.47933 4.3227C9.16546 3.28301 11.1093 2.73635 13.0901 2.74531C19.3732 2.52806 25.6693 2.53016 31.9387 2.11076C53.0498 0.698319 74.1571 1.83063 95.2662 1.96846C97.3757 1.92337 99.472 2.30922 101.427 3.10296C103.382 3.8967 105.155 5.08174 106.636 6.58463C113.462 13.0824 120.794 19.0469 127.88 25.2736C130.493 27.5708 132.912 30.0934 135.583 32.317C138.415 34.6746 139.476 37.6499 139.532 41.2C139.716 53.1016 139.928 65.0016 140.169 76.9004C140.326 84.9851 140.524 93.0692 140.704 101.153H141.035ZM93.5269 10.3566C91.5408 10.2017 89.8797 9.98363 88.2152 9.95541C74.0711 9.71867 59.9265 9.50273 45.7816 9.30806C39.3875 9.22011 32.9922 9.18014 26.5975 9.14076C23.3486 9.12107 20.0919 9.01881 16.8516 9.1888C12.3347 9.4264 10.9444 10.7338 10.1286 15.1804C9.31917 19.3744 9.12851 23.6645 9.56228 27.9137C9.82961 30.3683 9.96376 32.8354 9.96448 35.3046C10.0327 74.934 10.0843 114.564 10.1188 154.193C10.0972 154.979 10.1276 155.765 10.21 156.547C10.8952 161.659 13.5888 165.056 19.3915 165.285C41.0566 166.142 62.7204 166.147 84.392 165.78C95.2806 165.595 106.171 165.503 117.061 165.379C119.752 165.348 122.449 165.45 125.134 165.321C129.821 165.097 132.166 162.745 132.119 158.151C132.069 153.331 131.697 148.515 131.617 143.694C131.521 137.858 131.716 132.015 131.552 126.182C131.148 111.821 130.452 97.4674 130.177 83.1047C129.956 71.5453 130.181 59.978 130.197 48.4146C130.197 47.5529 130.106 46.6912 130.057 45.8117C129.673 45.7254 129.282 45.6675 128.89 45.638C122.043 45.7758 115.198 45.9909 108.351 46.0315C106.22 46.0474 104.095 45.8013 102.025 45.2989C97.8056 44.2567 96.4791 42.6233 96.0328 38.2875C95.6311 34.3823 95.3699 30.4627 95.0194 26.5516C94.5508 21.3088 94.0546 16.0681 93.5269 10.3566ZM105.638 37.91L125.77 36.6634L102.827 15.8368L102.323 16.1285C103.414 23.2937 104.504 30.4593 105.64 37.91H105.638Z" fill="black"/>
<path d="M69.9072 93.5375C82.0284 93.1949 94.149 92.8274 106.268 92.534C108.287 92.4808 110.306 92.6115 112.301 92.9232C114.371 93.2514 115.271 94.356 115.296 95.9785C115.322 97.7066 114.246 99.0232 112.156 99.3081C109.381 99.7176 106.583 99.9585 103.777 100.03C87.3828 100.268 70.9875 100.489 54.5922 100.569C47.1914 100.606 39.7879 100.363 32.3904 100.118C30.8247 100.077 29.2871 99.6927 27.8859 98.9924C27.461 98.676 27.1107 98.2691 26.8599 97.8024C26.609 97.3351 26.4636 96.8192 26.434 96.2902C26.3867 95.0012 27.599 94.507 28.8276 94.4492C29.7235 94.4065 30.6221 94.4197 31.5187 94.4039L69.9078 93.7279L69.9072 93.5375Z" fill="black"/>
<path d="M67.9995 69.7749C60.426 70.0158 53.1321 70.3414 45.8343 70.449C40.449 70.5284 35.0592 70.3663 29.6739 70.2226C27.8579 70.174 26.7316 69.0589 26.6969 67.6346C26.6594 66.1002 27.6157 65.1407 29.5191 64.9556C30.858 64.8243 32.21 64.8025 33.5555 64.7684C42.8709 64.5354 52.1877 64.3419 61.5024 64.0794C74.9738 63.6987 88.4432 63.2684 101.914 62.8661C103.71 62.8129 105.508 62.7565 107.304 62.7828C110.31 62.8261 111.763 63.7673 111.898 65.6529C112.034 67.5716 110.685 68.9086 107.8 69.1317C103.327 69.4796 98.8349 69.7001 94.3489 69.7467C85.4752 69.8406 76.5995 69.7749 67.9995 69.7749Z" fill="black"/>
<path d="M73.9593 85.1224C59.8408 85.1999 45.7052 85.9035 31.6169 84.4248C30.4997 84.3493 29.4 84.1091 28.3536 83.7107C28.0287 83.5551 27.7455 83.3247 27.527 83.0386C27.3084 82.7524 27.1609 82.419 27.0967 82.0646C27.178 81.7088 27.345 81.3787 27.5832 81.1024C27.8213 80.8261 28.1235 80.6128 28.4632 80.4802C29.5618 80.2734 30.6826 80.2098 31.7974 80.2911C41.4377 80.2537 51.0806 80.3686 60.7177 80.1664C76.0687 79.8435 91.4159 79.3053 106.765 78.8787C108.11 78.8242 109.457 78.8708 110.794 79.0185C112.541 79.2371 113.6 80.3732 113.634 81.8106C113.668 83.248 112.644 84.4359 110.943 84.7838C110.169 84.9032 109.386 84.9485 108.603 84.919C98.734 84.9925 88.866 85.0601 78.998 85.1211C77.3177 85.1329 75.6388 85.1224 73.9593 85.1224Z" fill="black"/>
<path d="M70.7548 112.121C74.1238 112.121 77.4934 112.068 80.8624 112.143C82.5374 112.176 84.2071 112.345 85.8545 112.651C86.5338 112.754 87.1527 113.1 87.5964 113.624C88.0408 114.148 88.2797 114.816 88.2698 115.502C88.3545 116.241 88.1655 116.985 87.7388 117.594C87.3122 118.203 86.6775 118.634 85.9543 118.807C84.5746 119.283 83.1281 119.534 81.669 119.551C73.8238 119.192 65.9826 118.698 58.1453 118.222C57.5871 118.166 57.0411 118.024 56.5267 117.8C55.2665 117.301 54.4802 116.435 54.5957 114.978C54.6116 114.408 54.8263 113.862 55.2023 113.434C55.5785 113.006 56.0925 112.723 56.6554 112.634C57.7446 112.384 58.856 112.244 59.9731 112.216C63.5672 112.165 67.162 112.198 70.7561 112.198L70.7548 112.121Z" fill="black"/>
</g>
<defs>
<clipPath id="clip0">
<rect width="141.113" height="173.93" fill="white" transform="translate(0.363281 0.793701)"/>
</clipPath>
</defs>
</svg>

<svg xmlns="http://www.w3.org/2000/svg" width="142" height="175" fill="none" viewBox="0 0 142 175"><g fill="#000" clip-path="url(#a)"><path d="M141.035 101.153c.116 13.697.298 27.395.316 41.092.008 5.946-.448 11.893-.467 17.84-.025 8.37-6.329 13.568-14.02 13.74-17.511.394-35.028.745-52.54.685-16.17-.056-32.339-.591-48.504-1.09a113 113 0 0 1-13.047-1.401c-4.965-.735-9.885-6.612-10.21-12.011-.25-4.14-.46-8.288-.518-12.435q-.447-32.845-.8-65.692-.357-30.825-.69-61.65A23.7 23.7 0 0 1 3.551 8.627a10.6 10.6 0 0 1 9.54-5.882c6.282-.217 12.578-.215 18.848-.634 21.11-1.413 42.218-.28 63.327-.143a15.5 15.5 0 0 1 11.37 4.617c6.826 6.497 14.158 12.462 21.244 18.689 2.613 2.297 5.032 4.82 7.703 7.043 2.832 2.358 3.893 5.333 3.949 8.883q.276 17.853.637 35.7c.157 8.085.355 16.17.535 24.253zM93.527 10.357c-1.986-.155-3.647-.373-5.312-.402a14268 14268 0 0 0-42.433-.647c-6.394-.088-12.79-.128-19.184-.167-3.25-.02-6.506-.122-9.746.048-4.517.237-5.908 1.545-6.723 5.991a43.8 43.8 0 0 0-.567 12.734 68 68 0 0 1 .402 7.39q.103 59.445.155 118.889-.033 1.18.091 2.354c.685 5.112 3.379 8.509 9.182 8.738 21.665.857 43.328.862 65 .495 10.889-.185 21.779-.277 32.669-.401 2.691-.031 5.388.071 8.073-.058 4.687-.224 7.032-2.576 6.985-7.17-.05-4.82-.422-9.636-.502-14.457-.096-5.836.099-11.679-.065-17.512-.404-14.361-1.1-28.715-1.375-43.077-.221-11.56.004-23.127.02-34.69 0-.862-.091-1.724-.14-2.603a8 8 0 0 0-1.167-.174c-6.847.138-13.692.353-20.539.394a26 26 0 0 1-6.326-.733c-4.22-1.042-5.546-2.676-5.992-7.011-.402-3.906-.663-7.825-1.014-11.736-.468-5.243-.964-10.484-1.492-16.195m12.111 27.553 20.132-1.247-22.943-20.826-.504.291c1.091 7.166 2.181 14.331 3.317 21.782z"/><path d="M69.907 93.538c12.121-.343 24.242-.71 36.361-1.004a33.4 33.4 0 0 1 6.033.39c2.07.327 2.97 1.432 2.995 3.054.026 1.729-1.05 3.045-3.14 3.33-2.775.41-5.573.65-8.379.722-16.394.238-32.79.459-49.185.539-7.4.037-14.804-.206-22.202-.451a10.7 10.7 0 0 1-4.504-1.126 3.62 3.62 0 0 1-1.452-2.702c-.047-1.289 1.165-1.783 2.394-1.84.896-.044 1.794-.03 2.69-.046l38.39-.676zM68 69.775c-7.574.24-14.868.566-22.166.674-5.385.08-10.775-.083-16.16-.226-1.816-.049-2.942-1.164-2.977-2.588-.038-1.535.919-2.494 2.822-2.68 1.339-.13 2.691-.153 4.037-.187 9.315-.233 18.632-.426 27.946-.689 13.472-.38 26.941-.81 40.412-1.213 1.796-.053 3.594-.11 5.39-.083 3.006.043 4.459.984 4.594 2.87.136 1.919-1.213 3.256-4.098 3.479-4.473.348-8.965.568-13.451.615-8.874.094-17.75.028-26.35.028m5.961 15.347c-14.12.078-28.255.781-42.343-.697a11.3 11.3 0 0 1-3.263-.714 2.28 2.28 0 0 1-1.257-1.646 2.24 2.24 0 0 1 1.366-1.585c1.099-.207 2.22-.27 3.334-.189 9.64-.037 19.284.078 28.92-.125 15.352-.322 30.699-.86 46.048-1.287a27 27 0 0 1 4.029.14c1.747.218 2.806 1.354 2.84 2.792s-.99 2.625-2.691 2.973c-.774.12-1.557.164-2.34.135q-14.803.11-29.605.202c-1.68.012-3.36.001-5.039.001m-3.204 26.999c3.369 0 6.738-.053 10.107.022a30.6 30.6 0 0 1 4.993.508 2.84 2.84 0 0 1 2.415 2.851 3.04 3.04 0 0 1-2.316 3.305c-1.38.476-2.826.727-4.285.744-7.845-.359-15.686-.853-23.524-1.329a5.4 5.4 0 0 1-1.618-.422c-1.26-.499-2.047-1.365-1.931-2.822a2.44 2.44 0 0 1 2.06-2.344 16.7 16.7 0 0 1 3.317-.418c3.594-.051 7.189-.018 10.783-.018z"/></g><defs><clipPath id="a"><path fill="#fff" d="M.363.794h141.113v173.93H.363z"/></clipPath></defs></svg>
